cypex/img/main/caseStudies__step1.svg

<svg width="80" height="80" viewBox="0 0 80 80" fill="none" xmlns="http://www.w3.org/2000/svg">
<rect width="80" height="80" rx="24" fill="url(#paint0_linear_153_6324)"/>
<path d="M54 46V54H26V46H54ZM56 42H24C22.9 42 22 42.9 22 44V56C22 57.1 22.9 58 24 58H56C57.1 58 58 57.1 58 56V44C58 42.9 57.1 42 56 42ZM30 53C28.36 53 27 51.66 27 50C27 48.34 28.36 47 30 47C31.64 47 33 48.34 33 50C33 51.66 31.66 53 30 53ZM54 26V34H26V26H54ZM56 22H24C22.9 22 22 22.9 22 24V36C22 37.1 22.9 38 24 38H56C57.1 38 58 37.1 58 36V24C58 22.9 57.1 22 56 22ZM30 33C28.36 33 27 31.66 27 30C27 28.34 28.36 27 30 27C31.64 27 33 28.36 33 30C33 31.64 31.66 33 30 33Z" fill="#0D0D0D"/>
<defs>
<linearGradient id="paint0_linear_153_6324" x1="80" y1="67.6923" x2="-4.16728" y2="62.0386" gradientUnits="userSpaceOnUse">
<stop stop-color="#E5FF5D"/>
<stop offset="1" stop-color="#5DFFFF"/>
</linearGradient>
</defs>
</svg>

<svg width="80" height="80" fill="none" xmlns="http://www.w3.org/2000/svg"><rect width="80" height="80" rx="24" fill="url(#a)"/><path d="M54 46v8H26v-8h28Zm2-4H24c-1.1 0-2 .9-2 2v12c0 1.1.9 2 2 2h32c1.1 0 2-.9 2-2V44c0-1.1-.9-2-2-2ZM30 53c-1.64 0-3-1.34-3-3s1.36-3 3-3 3 1.34 3 3-1.34 3-3 3Zm24-27v8H26v-8h28Zm2-4H24c-1.1 0-2 .9-2 2v12c0 1.1.9 2 2 2h32c1.1 0 2-.9 2-2V24c0-1.1-.9-2-2-2ZM30 33c-1.64 0-3-1.34-3-3s1.36-3 3-3 3 1.36 3 3-1.34 3-3 3Z" fill="#0D0D0D"/><defs><linearGradient id="a" x1="80" y1="67.692" x2="-4.167" y2="62.039" gradientUnits="userSpaceOnUse"><stop stop-color="#E5FF5D"/><stop offset="1" stop-color="#5DFFFF"/></linearGradient></defs></svg>
